X:2
T:Epistrophy
C:Thelonius Monk
L:1/8
M:C
I:linebreak $
K:C
"C7" z2 C_D"Db7" A _B3 |"C7" C_DA_B-"Db7" B2 z2 |"C7" z2 C_D"Db7" A _E3 |
"C7" C_DA_E-"Db7" E2 z2 ||1$"D7" z2 D_E"Eb7" B c3 |"D7" D_EBc-"Eb7" c2 z2 |"D7" z2 D_E"Eb7" B F3 |
"D7" D_EBF-"Eb7" F2 z2 |$"D7" z2 D_E"Eb7" B c3 |"D7" D_EBc-"Eb7" c2 z2 |"D7" z2 D_E"Eb7" B F3 |
"D7" D_EBF-"Eb7" F2 z2 :|2$"Fm" z4 cdfg |"Fm" _a2 fg f2 d2 |"Fm" z4 cdf_a |"Fm" z _a2 g f2 d2 |$
"Bb7" z4 cdf_a | _b2 _ab _a2 f2 |"C7" EG_Bd- d B3 |"Db7" F_A_c_e- e B3 ||$"D7" z2 D_E"Eb7" B c3 |
"D7" D_EBc-"Eb7" c2 z2 |"D7" z2 D_E"Eb7" B F3 |"D7" D_EBF-"Eb7" F2 "_D.C. al 3rd end." z2 ||3
"C7" C_DA_B-"Db7" B2 _A=B- | B6 z2 |]

